Icons/com_accuweather_android.svg

<svg viewBox="0 0 48 48" xmlns:xlink="http://www.w3.org/1999/xlink">
 <defs>
  <linearGradient id="0">
   <stop stop-opacity="0"/>
   <stop offset="1"/>
  </linearGradient>
  <linearGradient xlink:href="#0" id="1" gradientUnits="userSpaceOnUse" gradientTransform="translate(4e-7,-48)" y1="47" x2="0" y2="1"/>
  <clipPath id="2">
   <g transform="translate(0,-1004.3622)">
    <rect rx="4" y="1005.36" x="1" height="46" width="46" fill="#1890d0"/>
   </g>
  </clipPath>
  <clipPath id="3">
   <g transform="translate(0,-1004.3622)">
    <rect rx="4" y="1005.36" x="1" height="46" width="46" fill="#1890d0"/>
   </g>
  </clipPath>
 </defs>
 <g>
  <g transform="translate(0,-1004.3622)">
   <path d="m 5,1006.3622 c -2.216,0 -4,1.784 -4,4 l 0,37.25 c 0,2.216 1.784,4 4,4 l 38,0 c 2.216,0 4,-1.784 4,-4 l 0,-37.25 c 0,-2.216 -1.784,-4 -4,-4 l -38,0 z m -4,41.5 0,0.5 c 0,2.216 1.784,4 4,4 l 38,0 c 2.216,0 4,-1.784 4,-4 l 0,-0.5 c 0,2.216 -1.784,4 -4,4 l -38,0 c -2.216,0 -4,-1.784 -4,-4 z" opacity="0.02"/>
   <path d="m 1,1047.6122 0,0.25 c 0,2.216 1.784,4 4,4 l 38,0 c 2.216,0 4,-1.784 4,-4 l 0,-0.25 c 0,2.216 -1.784,4 -4,4 l -38,0 c -2.216,0 -4,-1.784 -4,-4 z" opacity="0.05"/>
   <rect width="46" height="46" x="1" y="1005.61" rx="4" opacity="0.1"/>
  </g>
 </g>
 <g>
  <g transform="translate(0,-1004.3622)">
   <rect rx="4" y="1005.36" x="1" height="46" width="46" fill="#6ab1e6"/>
  </g>
 </g>
 <g>
  <rect transform="scale(1,-1)" width="46" height="46" x="1" y="-46.998" rx="4" opacity="0.1" fill="url(#1)"/>
 </g>
 <g>
  <g clip-path="url(#2)">
   <g opacity="0.1">
    <g>
     <path d="M 23.9375 12 L 21.5 14.75 L 18 14 L 17 17 L 13.5 18 L 14.5 21.5 L 12 24 L 14.5 26.75 L 13.5 30 L 17 31 L 18 34.5 L 21.5 33.5 L 24 36 L 26.5 33.5 L 30 34.5 L 31 31 L 34.5 30 L 33.5 26.5 L 36 24 L 33.5 21.5 L 34 18 L 31 17 L 30 13.75 C 28.679688 14.066406 27.71875 14.355469 26.5 14.75 Z M 24 16 C 28.417969 16 32 19.582031 32 24 C 32 28.417969 28.417969 32 24 32 C 19.582031 32 16 28.417969 16 24 C 16 19.582031 19.582031 16 24 16 Z M 24 16 "/>
     <path d="M 22.609375 30.898438 C 19.734375 30.257812 17.695312 28.179688 17.113281 25.3125 C 16.929688 24.390625 16.972656 23.078125 17.21875 22.164062 C 17.859375 19.777344 19.804688 17.839844 22.234375 17.175781 C 23.074219 16.941406 24.953125 16.941406 25.796875 17.175781 C 28.242188 17.847656 30.152344 19.761719 30.828125 22.210938 C 31.058594 23.042969 31.058594 24.925781 30.824219 25.777344 C 30.164062 28.21875 28.265625 30.132812 25.84375 30.800781 C 25.050781 31.015625 23.371094 31.070312 22.609375 30.898438 Z M 22.609375 30.898438 "/>
    </g>
   </g>
  </g>
 </g>
 <g>
  <g clip-path="url(#3)">
   <g transform="translate(0,-1)">
    <g>
     <path d="M 23.9375 12 L 21.5 14.75 L 18 14 L 17 17 L 13.5 18 L 14.5 21.5 L 12 24 L 14.5 26.75 L 13.5 30 L 17 31 L 18 34.5 L 21.5 33.5 L 24 36 L 26.5 33.5 L 30 34.5 L 31 31 L 34.5 30 L 33.5 26.5 L 36 24 L 33.5 21.5 L 34 18 L 31 17 L 30 13.75 C 28.679688 14.066406 27.71875 14.355469 26.5 14.75 Z M 24 16 C 28.417969 16 32 19.582031 32 24 C 32 28.417969 28.417969 32 24 32 C 19.582031 32 16 28.417969 16 24 C 16 19.582031 19.582031 16 24 16 Z M 24 16 " fill="#f4a14c"/>
     <path d="M 22.609375 30.898438 C 19.734375 30.257812 17.695312 28.179688 17.113281 25.3125 C 16.929688 24.390625 16.972656 23.078125 17.21875 22.164062 C 17.859375 19.777344 19.804688 17.839844 22.234375 17.175781 C 23.074219 16.941406 24.953125 16.941406 25.796875 17.175781 C 28.242188 17.847656 30.152344 19.761719 30.828125 22.210938 C 31.058594 23.042969 31.058594 24.925781 30.824219 25.777344 C 30.164062 28.21875 28.265625 30.132812 25.84375 30.800781 C 25.050781 31.015625 23.371094 31.070312 22.609375 30.898438 Z M 22.609375 30.898438 " fill="#f4a14c"/>
    </g>
   </g>
  </g>
 </g>
 <g>
  <g transform="translate(0,-1004.3622)">
   <path d="m 1,1043.3622 0,4 c 0,2.216 1.784,4 4,4 l 38,0 c 2.216,0 4,-1.784 4,-4 l 0,-4 c 0,2.216 -1.784,4 -4,4 l -38,0 c -2.216,0 -4,-1.784 -4,-4 z" opacity="0.1"/>
  </g>
 </g>
</svg>

<svg viewBox="0 0 48 48"><defs><linearGradient id="linearGradient3764" x1="1" x2="47" gradientUnits="userSpaceOnUse" gradientTransform="translate(-48.000001,0.00221467)"><stop stop-color="#59a7e3" stop-opacity="1"/><stop offset="1" stop-color="#6ab1e6" stop-opacity="1"/></linearGradient><clipPath id="clipPath-473943983"><g transform="translate(0,-1004.3622)"><rect rx="4" y="1005.36" x="1" height="46" width="46" fill="#1890d0"/></g></clipPath><clipPath id="clipPath-486614861"><g transform="translate(0,-1004.3622)"><rect rx="4" y="1005.36" x="1" height="46" width="46" fill="#1890d0"/></g></clipPath></defs><g><path d="m 1 43 l 0 0.25 c 0 2.216 1.784 4 4 4 l 38 0 c 2.216 0 4 -1.784 4 -4 l 0 -0.25 c 0 2.216 -1.784 4 -4 4 l -38 0 c -2.216 0 -4 -1.784 -4 -4 z m 0 0.5 l 0 0.5 c 0 2.216 1.784 4 4 4 l 38 0 c 2.216 0 4 -1.784 4 -4 l 0 -0.5 c 0 2.216 -1.784 4 -4 4 l -38 0 c -2.216 0 -4 -1.784 -4 -4 z" opacity="0.02"/><path d="m 1 43.25 l 0 0.25 c 0 2.216 1.784 4 4 4 l 38 0 c 2.216 0 4 -1.784 4 -4 l 0 -0.25 c 0 2.216 -1.784 4 -4 4 l -38 0 c -2.216 0 -4 -1.784 -4 -4 z" opacity="0.05"/><path d="m 1 43 l 0 0.25 c 0 2.216 1.784 4 4 4 l 38 0 c 2.216 0 4 -1.784 4 -4 l 0 -0.25 c 0 2.216 -1.784 4 -4 4 l -38 0 c -2.216 0 -4 -1.784 -4 -4 z" opacity="0.1"/></g><g><rect width="46" height="46" x="-47" y="1" rx="4" transform="matrix(0,-1,1,0,0,0)" fill="url(#linearGradient3764)" fill-opacity="1"/></g><g><g clip-path="url(#clipPath-473943983)"><g opacity="0.1"><!-- color: #6ab1e6 --><g><path d="m 23.938 12 l -2.438 2.75 l -3.5 -0.75 l -1 3 l -3.5 1 l 1 3.5 l -2.5 2.5 l 2.5 2.75 l -1 3.25 l 3.5 1 l 1 3.5 l 3.5 -1 l 2.5 2.5 l 2.5 -2.5 l 3.5 1 l 1 -3.5 l 3.5 -1 l -1 -3.5 l 2.5 -2.5 l -2.5 -2.5 l 0.5 -3.5 l -3 -1 l -1 -3.25 c -1.32 0.316 -2.281 0.605 -3.5 1 m -2.5 1.25 c 4.418 0 8 3.582 8 8 c 0 4.418 -3.582 8 -8 8 c -4.418 0 -8 -3.582 -8 -8 c 0 -4.418 3.582 -8 8 -8 m 0 0" fill="#000"/><path d="m 22.609 30.898 c -2.875 -0.641 -4.914 -2.719 -5.496 -5.586 c -0.184 -0.922 -0.141 -2.234 0.105 -3.148 c 0.641 -2.387 2.586 -4.324 5.02 -4.988 c 0.84 -0.234 2.719 -0.234 3.563 0 c 2.445 0.672 4.355 2.586 5.03 5.04 c 0.23 0.832 0.23 2.715 -0.004 3.566 c -0.66 2.441 -2.559 4.355 -4.98 5.02 c -0.793 0.215 -2.473 0.27 -3.234 0.098 m 0 0" fill="#000"/></g></g></g></g><g><g clip-path="url(#clipPath-486614861)"><g transform="translate(0,-1)"><!-- color: #6ab1e6 --><g><path d="m 23.938 12 l -2.438 2.75 l -3.5 -0.75 l -1 3 l -3.5 1 l 1 3.5 l -2.5 2.5 l 2.5 2.75 l -1 3.25 l 3.5 1 l 1 3.5 l 3.5 -1 l 2.5 2.5 l 2.5 -2.5 l 3.5 1 l 1 -3.5 l 3.5 -1 l -1 -3.5 l 2.5 -2.5 l -2.5 -2.5 l 0.5 -3.5 l -3 -1 l -1 -3.25 c -1.32 0.316 -2.281 0.605 -3.5 1 m -2.5 1.25 c 4.418 0 8 3.582 8 8 c 0 4.418 -3.582 8 -8 8 c -4.418 0 -8 -3.582 -8 -8 c 0 -4.418 3.582 -8 8 -8 m 0 0" fill="#f4a14c"/><path d="m 22.609 30.898 c -2.875 -0.641 -4.914 -2.719 -5.496 -5.586 c -0.184 -0.922 -0.141 -2.234 0.105 -3.148 c 0.641 -2.387 2.586 -4.324 5.02 -4.988 c 0.84 -0.234 2.719 -0.234 3.563 0 c 2.445 0.672 4.355 2.586 5.03 5.04 c 0.23 0.832 0.23 2.715 -0.004 3.566 c -0.66 2.441 -2.559 4.355 -4.98 5.02 c -0.793 0.215 -2.473 0.27 -3.234 0.098 m 0 0" fill="#f4a14c"/></g></g></g></g><g><g transform="translate(0,-1004.3622)"><path d="m 1 1043.36 0 4 c 0 2.216 1.784 4 4 4 l 38 0 c 2.216 0 4 -1.784 4 -4 l 0 -4 c 0 2.216 -1.784 4 -4 4 l -38 0 c -2.216 0 -4 -1.784 -4 -4 z" opacity="0.1"/></g></g></svg>
